svgs/regular/dumbbell.svg

<svg xmlns="http://www.w3.org/2000/svg" viewBox="0 0 640 512"><!--! Font Awesome Pro 6.6.0 by @fontawesome - https://fontawesome.com License - https://fontawesome.com/license (Commercial License) Copyright 2024 Fonticons, Inc. --><path d="M128 88c0-30.9 25.1-56 56-56l16 0c30.9 0 56 25.1 56 56l0 144 128 0 0-144c0-30.9 25.1-56 56-56l16 0c30.9 0 56 25.1 56 56l0 16 24 0c30.9 0 56 25.1 56 56l0 72 24 0c13.3 0 24 10.7 24 24s-10.7 24-24 24l-24 0 0 72c0 30.9-25.1 56-56 56l-24 0 0 16c0 30.9-25.1 56-56 56l-16 0c-30.9 0-56-25.1-56-56l0-144-128 0 0 144c0 30.9-25.1 56-56 56l-16 0c-30.9 0-56-25.1-56-56l0-16-24 0c-30.9 0-56-25.1-56-56l0-72-24 0c-13.3 0-24-10.7-24-24s10.7-24 24-24l24 0 0-72c0-30.9 25.1-56 56-56l24 0 0-16zm48 16l0 24 0 256 0 24 0 16c0 4.4 3.6 8 8 8l16 0c4.4 0 8-3.6 8-8l0-336c0-4.4-3.6-8-8-8l-16 0c-4.4 0-8 3.6-8 8l0 16zm-48 48l-24 0c-4.4 0-8 3.6-8 8l0 192c0 4.4 3.6 8 8 8l24 0 0-208zM464 384l0-256 0-24 0-16c0-4.4-3.6-8-8-8l-16 0c-4.4 0-8 3.6-8 8l0 336c0 4.4 3.6 8 8 8l16 0c4.4 0 8-3.6 8-8l0-16 0-24zm72-24c4.4 0 8-3.6 8-8l0-192c0-4.4-3.6-8-8-8l-24 0 0 208 24 0z"/></svg>

<svg xmlns="http://www.w3.org/2000/svg" viewBox="0 0 640 512"><!--! Font Awesome Pro 6.4.0 by @fontawesome - https://fontawesome.com License - https://fontawesome.com/license (Commercial License) Copyright 2023 Fonticons, Inc. --><path d="M128 88c0-30.9 25.1-56 56-56h16c30.9 0 56 25.1 56 56V232H384V88c0-30.9 25.1-56 56-56h16c30.9 0 56 25.1 56 56v16h24c30.9 0 56 25.1 56 56v72h24c13.3 0 24 10.7 24 24s-10.7 24-24 24H592v72c0 30.9-25.1 56-56 56H512v16c0 30.9-25.1 56-56 56H440c-30.9 0-56-25.1-56-56V280H256V424c0 30.9-25.1 56-56 56H184c-30.9 0-56-25.1-56-56V408H104c-30.9 0-56-25.1-56-56V280H24c-13.3 0-24-10.7-24-24s10.7-24 24-24H48V160c0-30.9 25.1-56 56-56h24V88zm48 16v24V384v24 16c0 4.4 3.6 8 8 8h16c4.4 0 8-3.6 8-8V88c0-4.4-3.6-8-8-8H184c-4.4 0-8 3.6-8 8v16zm-48 48H104c-4.4 0-8 3.6-8 8V352c0 4.4 3.6 8 8 8h24V152zM464 384V128 104 88c0-4.4-3.6-8-8-8H440c-4.4 0-8 3.6-8 8V424c0 4.4 3.6 8 8 8h16c4.4 0 8-3.6 8-8V408 384zm72-24c4.4 0 8-3.6 8-8V160c0-4.4-3.6-8-8-8H512V360h24z"/></svg>
